X:1
T:Title
%%score { ( 1 4 6 ) | ( 2 3 5 ) }
L:1/8
M:4/4
K:Bb
V:1 treble nm="Grand Piano"
V:4 treble 
V:6 treble 
V:2 bass 
V:3 bass 
V:5 bass 
V:1
 z4 z2[Q:1/4=100] [DF]2 | [Fd]3 [Ec] [DB]2 [DF]2 | G2 B2 F2 F2 | B2 c2 d2 [Ge]2 |[M:3/4] d4 c2 | %5
[M:1/4] F2 |[M:4/4] [Fd]3 [Ec] [DB]2 [DF]2 | [B,EG]2 [B,EB]2 [DF]2 [Fd]2 | %8
 [Fc]3 [FA] .[=EB]2 [B,EG]2 |[M:3/4] F6 |[M:1/4] F2 |[M:4/4] G3 G A2 A2 | B2 B2 c2 G2 | %13
 A3 A B2 B2 |[M:3/4] c2 d2 e2 |[M:1/4] e2 |[M:4/4] d3 c [FB]2 c2 | d2 e2 f2 [Bg]2 | [Bf]4 [EA]4 | %19
[M:3/4] [DB]6 |[M:1/4] [DF]2 |[M:4/4] (3[Fd-][Gd-][Ad-] d2 (3dcB (3[Fd]cB | %22
[M:3/4] [Fd]4[K:bass][K:treble] z2 |[M:1/4] d2 |[M:4/4] e6 z2 |[M:3/4] [Fd]6[K:bass] | %26
[M:1/4][K:treble] [Fd]2 |[M:4/4] c6 z2 | e2 d2 c2 c2 | d2 d2 d2 z2 | [Af]2 [Ag]2 [Bf]2 [Fe]2 | %31
 d4 z4 |[M:3/4] [Fd]4[K:bass][K:treble] z2 |[M:1/4] d2 |[M:4/4] e6 z2 |[M:3/4] [Fd]6[K:bass] | %36
[M:1/4][K:treble] [Fd]2 |[M:4/4] z4 _d4 | z2 (3z _d=d e2 d2 |[M:2/4] [Gc]2 [Bg]2 | [Bf]2 [_DFe]2 | %41
[M:3/4] [Fd]6 |[M:1/4] [Fd]2 |[M:4/4] z4 _d4 | z2 (3z _d=d e2 d2 |[M:2/4] [Gc]2 [Bg]2 | %46
 [Bf]2 [EFA]2 |[M:3/4] [DFB]6 |] %48
V:2
 z4 z2 [B,,B,]2 | [B,,B,]3 [B,,B,] [B,,B,]2 [B,,B,]2 | [E,B,E]2[K:treble] [G,B,E]2 [B,D]2 [A,CE]2 | %3
 [G,B,D]2 [F,A,F]2 [B,F]2[K:bass] [E,B,]2 |[M:3/4] [F,F]4- [F,A,F]2 |[M:1/4] [F,A,]2 | %6
[M:4/4] [B,,B,]3 [B,,B,] [B,,B,]2 [B,,B,]2 | E,>F, G,>A, B,2 [B,,B,]2 | [C,A,]3 [C,C] z A C,2 | %9
[M:3/4] [F,A,]6 |[M:1/4] [F,A,]2 |[M:4/4][K:treble] [F,B,F]3 [F,B,F] [F,CF]2 [F,CF]2 | %12
 [F,DF]2 [F,DF]2 [F,EF]2 [F,B,F]2 | [F,CF]3 [F,CF] [F,DF]2 [F,DF]2 | %14
[M:3/4] [F,EF]2 [F,DF]2 [F,CF]2 |[M:1/4] [A,CF]2 | %16
[M:4/4] [B,F]3[K:bass] [F,A,F] [D,B,]2[K:treble] [F,A,F]2 | [B,F]2 [B,CF]2 [B,DB]2[K:bass] [E,E]2 | %18
 [F,D]4 [F,C]4 |[M:3/4] [B,,B,]6 |[M:1/4] [B,,B,]2 |[M:4/4] [B,,B,]2 [B,,F,]2 (3z ED (3z ED | %22
[M:3/4] (3[B,,B,]B,,B,, (3B,,B,,B,, [B,,B,]2 |[M:1/4] F/ z/ z | %24
[M:4/4] [E,B,]2 [E,G,]2 [E,B,]2 [E,B,]2 |[M:3/4] (3[B,,B,]B,,B,, (3B,,B,,B,, B,,2 | %26
[M:1/4] [B,,B,]2 |[M:4/4] (3[C,B,][C,A,][C,B,] (3[C,D][C,C][C,B,] [F,A,]2[K:treble] [F,B,F]2 | %28
 [F,CF]2 [F,B,F]2 [F,A,F]2 [F,A,F]2 | z2 ^F2 G2[K:bass] z2 | [F,C]2 [F,E]2 [F,D]2 [F,C]2 | %31
 [B,,B,]2 [B,,F,]2 (3z ED (3z ED |[M:3/4] (3[B,,B,]B,,B,, (3B,,B,,B,, [B,,B,]2 |[M:1/4] F/ z/ z | %34
[M:4/4] [E,B,]2 [E,G,]2 [E,B,]2 [E,B,]2 |[M:3/4] (3[B,,B,]B,,B,, (3B,,B,,B,, B,,2 | %36
[M:1/4] [B,,B,]2 | %37
[M:4/4] (3[E,B,][E,B,][E,B,] (3:2:2[E,B,]2 [E,B,] (3[=E,B,]E,E, (3:2:2[E,B,]2 [E,B,] | %38
 (3[F,B,F][F,B,][F,B,] (3:2:2[_A,B,]2 [A,B,] [G,B,E]2 [F,B,F]2 |[M:2/4] [E,B,]2 [=E,_D]2 | D2 z2 | %41
[M:3/4] B,4 z2 |[M:1/4] [B,,B,]2 | %43
[M:4/4] (3[E,B,][E,B,][E,B,] (3:2:2[E,B,]2 [E,B,] (3[=E,B,]E,E, (3:2:2[E,B,]2 [E,B,] | %44
 (3[F,B,F][F,B,][F,B,] (3:2:2[_A,B,]2 [A,B,] [G,B,E]2 [F,B,F]2 |[M:2/4] [E,B,]2 [=E,_D]2 | %46
 [F,D]2 F,2 |[M:3/4] B,,6 |] %48
V:3
 x8 | x8 | x2[K:treble] x6 | x6[K:bass] x2 |[M:3/4] B,4 z2 |[M:1/4] x2 |[M:4/4] x8 | x8 | %8
 z4 [C,G,]2 z2 |[M:3/4] x6 |[M:1/4] x2 |[M:4/4][K:treble] x8 | x8 | x8 |[M:3/4] x6 |[M:1/4] x2 | %16
[M:4/4] x3[K:bass] x3[K:treble] x2 | x6[K:bass] x2 | x8 |[M:3/4] x6 |[M:1/4] x2 | %21
[M:4/4] z4 B,2 F,2 |[M:3/4] x6 |[M:1/4] B,2 |[M:4/4] x8 |[M:3/4] x6 |[M:1/4] x2 | %27
[M:4/4] x6[K:treble] x2 | x8 | [B,F]2 [A,C]>A, [G,B,]>[K:bass]G, [C,C]>[C,C] | x8 | z4 B,2 F,2 | %32
[M:3/4] x6 |[M:1/4] B,2 |[M:4/4] x8 |[M:3/4] x6 |[M:1/4] x2 |[M:4/4] x8 | x8 |[M:2/4] x4 | %40
 F,>G, A,>F, |[M:3/4] z z/ B,,/ D,>F, B,2 |[M:1/4] x2 |[M:4/4] x8 | x8 |[M:2/4] x4 | x4 | %47
[M:3/4] x6 |] %48
V:4
 x8 | x8 | x8 | x8 |[M:3/4] x6 |[M:1/4] x2 |[M:4/4] x8 | x8 | x8 |[M:3/4] x6 |[M:1/4] x2 | %11
[M:4/4] x8 | x8 | x8 |[M:3/4] x6 |[M:1/4] x2 |[M:4/4] x8 | x8 | x8 |[M:3/4] x6 |[M:1/4] x2 | %21
[M:4/4] z2 (3BAG .F2 z2 |[M:3/4] (3z[K:bass] A,G, z2[K:treble] d2 |[M:1/4] (3z G_A | %24
[M:4/4] (3GAB z2 G2 (3eBc |[M:3/4] (3z[K:bass] A,G, z2 z2 |[M:1/4][K:treble] x2 | %27
[M:4/4] z2 (3BAG (3z Bc z2 | x8 | z z/ B,/ z z/ C/ z z/ B,/ [B=e]2 | x8 | (3FGA z2 (3dcB (3[Fd]cB | %32
[M:3/4] (3z[K:bass] A,G, z2[K:treble] d2 |[M:1/4] (3z G_A |[M:4/4] (3GAB z2 G2 (3eBc | %35
[M:3/4] (3z[K:bass] A,G, z2 z2 |[M:1/4][K:treble] x2 |[M:4/4] z2 (3G-[G=B][Gc] G2 (3z c_d | d4 z4 | %39
[M:2/4] x4 | x4 |[M:3/4] x6 |[M:1/4] x2 |[M:4/4] z2 (3G-[G=B][Gc] G2 (3z c_d | d4 z4 |[M:2/4] x4 | %46
 x4 |[M:3/4] x6 |] %48
V:5
 x8 | x8 | x2[K:treble] x6 | x6[K:bass] x2 |[M:3/4] x6 |[M:1/4] x2 |[M:4/4] x8 | x8 | x8 | %9
[M:3/4] x6 |[M:1/4] x2 |[M:4/4][K:treble] x8 | x8 | x8 |[M:3/4] x6 |[M:1/4] x2 | %16
[M:4/4] x3[K:bass] x3[K:treble] x2 | x6[K:bass] x2 | x8 |[M:3/4] x6 |[M:1/4] x2 | %21
[M:4/4] z4 B,,2 B,,2 |[M:3/4] x6 |[M:1/4] x2 |[M:4/4] x8 |[M:3/4] x6 |[M:1/4] x2 | %27
[M:4/4] x6[K:treble] x2 | x8 | x11/2[K:bass] x5/2 | x8 | z4 B,,2 B,,2 |[M:3/4] x6 |[M:1/4] x2 | %34
[M:4/4] x8 |[M:3/4] x6 |[M:1/4] x2 |[M:4/4] x8 | x8 |[M:2/4] x4 | x4 |[M:3/4] x6 |[M:1/4] x2 | %43
[M:4/4] x8 | x8 |[M:2/4] x4 | x4 |[M:3/4] x6 |] %48
V:6
 x8 | x8 | x8 | x8 |[M:3/4] x6 |[M:1/4] x2 |[M:4/4] x8 | x8 | x8 |[M:3/4] x6 |[M:1/4] x2 | %11
[M:4/4] x8 | x8 | x8 |[M:3/4] x6 |[M:1/4] x2 |[M:4/4] x8 | x8 | x8 |[M:3/4] x6 |[M:1/4] x2 | %21
[M:4/4] x8 |[M:3/4] z2[K:bass] (3F,G,A,[K:treble] z2 |[M:1/4] x2 |[M:4/4] z2 (3cBA (3z Bc ^F2 | %25
[M:3/4] z2[K:bass] (3F,G,A, B,2 |[M:1/4][K:treble] x2 |[M:4/4] (3EFG z2 F2 (3dcd | x8 | x8 | x8 | %31
 z2 (3BAG .F2 z2 |[M:3/4] z2[K:bass] (3F,G,A,[K:treble] z2 |[M:1/4] x2 | %34
[M:4/4] z2 (3cBA (3z Bc ^F2 |[M:3/4] z2[K:bass] (3F,G,A, B,2 |[M:1/4][K:treble] x2 | %37
[M:4/4] (3[Gc-][Gc-][Gc-] c2 (3z B,B, G2 | (3z FF F2 z4 |[M:2/4] x4 | x4 |[M:3/4] x6 |[M:1/4] x2 | %43
[M:4/4] (3[Gc-][Gc-][Gc-] c2 (3z B,B, G2 | (3z FF F2 z4 |[M:2/4] x4 | x4 |[M:3/4] x6 |] %48

